images/Logo.svg

<svg width="126" height="48" viewBox="0 0 126 48" fill="none" xmlns="http://www.w3.org/2000/svg">
<path fill-rule="evenodd" clip-rule="evenodd" d="M14.7784 3.89854C11.8312 4.75374 9.40123 6.40269 8.12784 8.35261L8.12654 8.35459L8.12523 8.35658C6.56573 10.723 4.43993 13.9834 5.27551 19.0522C5.43251 19.9648 5.30564 20.8817 4.92508 21.7062L4.92329 21.7101L2.42178 27.0231L3.00498 27.3039C4.14104 27.8509 4.96145 28.8695 5.25725 30.0405L5.25916 30.0481L6.36267 34.6914C6.36261 34.6911 6.36273 34.6916 6.36267 34.6914C6.67048 35.9742 7.84527 36.8737 9.20557 36.8737H12.0569C12.6227 36.8737 13.1717 36.9649 13.6953 37.1538C14.8095 37.5528 15.7578 38.3474 16.3252 39.4097L16.3288 39.4165L18.7763 44.1533L16.6468 45.1705L14.2067 40.4479C13.9115 39.8989 13.4245 39.4962 12.8644 39.2958L12.8626 39.2952L12.8609 39.2946C12.6181 39.2069 12.3531 39.1599 12.0569 39.1599H9.20557C6.73245 39.1599 4.6007 37.5209 4.04564 35.2047L2.94498 30.5735C2.80806 30.04 2.43153 29.5847 1.94033 29.3482L1.22993 29.0061C0.105161 28.4826 -0.258477 27.227 0.18162 26.2381L0.186474 26.2272L2.75331 20.7754C2.94592 20.3563 3.01038 19.8918 2.92922 19.4228L2.92849 19.4186L2.9278 19.4144C1.94514 13.4629 4.50825 9.57364 6.1115 7.14087L6.11545 7.13488C7.7655 4.60956 10.7379 2.68292 14.0915 1.70982C17.4602 0.732311 21.3411 0.677923 24.8866 2.04589C29.4984 3.82231 32.3391 7.16183 33.3239 8.75008C33.3466 8.78639 33.3875 8.83877 33.4903 8.96262C33.9306 9.47921 33.9877 10.1035 33.9981 10.4677C34.004 10.672 33.995 10.8722 33.9871 11.0318C33.986 11.0548 33.9849 11.0768 33.9838 11.098C33.9768 11.2382 33.9716 11.3412 33.9716 11.4364V16.1434C33.9716 17.8488 32.5395 19.2708 30.7221 19.2708H16.1541C15.6773 19.2708 15.2824 19.6428 15.2824 20.112V21.5656C15.2824 22.029 15.6713 22.4068 16.1541 22.4068H30.7221C32.4976 22.4068 33.9716 23.7883 33.9716 25.5342V27.8646C33.9716 29.57 32.5395 30.992 30.7221 30.992H13.5424V28.7058H30.7221C31.205 28.7058 31.5939 28.328 31.5939 27.8646V25.5342C31.5939 25.065 31.199 24.693 30.7221 24.693H16.1541C14.3367 24.693 12.9046 23.271 12.9046 21.5656V20.112C12.9046 18.3661 14.3787 16.9846 16.1541 16.9846H30.7221C31.205 16.9846 31.5939 16.6068 31.5939 16.1434V11.4364C31.5939 11.2811 31.6023 11.1161 31.6091 10.9818C31.6101 10.9615 31.6111 10.942 31.6121 10.9232C31.6199 10.7648 31.6244 10.6406 31.6213 10.5305C31.6188 10.4444 31.612 10.3895 31.6058 10.3574C31.5192 10.2532 31.3901 10.0951 31.2837 9.92426L31.2822 9.92193C30.493 8.64847 28.0148 5.71369 24.0024 4.16815C21.0307 3.02141 17.7111 3.04757 14.7784 3.89854Z" fill="url(#paint0_linear_272_758)"/>
<path d="M14.3358 32.5207C15.6489 32.5207 16.7135 31.4971 16.7135 30.2345C16.7135 28.9718 15.6489 27.9482 14.3358 27.9482C13.0226 27.9482 11.958 28.9718 11.958 30.2345C11.958 31.4971 13.0226 32.5207 14.3358 32.5207Z" fill="url(#paint1_linear_272_758)"/>
<path d="M17.9979 48.0011C19.3111 48.0011 20.3756 46.9776 20.3756 45.7149C20.3756 44.4523 19.3111 43.4287 17.9979 43.4287C16.6847 43.4287 15.6201 44.4523 15.6201 45.7149C15.6201 46.9776 16.6847 48.0011 17.9979 48.0011Z" fill="url(#paint2_linear_272_758)"/>
<path d="M51.1888 45.2255L46.8878 33.5668H44.2296L49.9045 47.6753H52.503L58.1779 33.5668H55.5197L51.1888 45.2255Z" fill="#4A3FFF"/>
<path fill-rule="evenodd" clip-rule="evenodd" d="M70.0334 43.5431C69.7546 45.255 68.6296 46.111 66.6583 46.111C65.364 46.111 64.3585 45.6486 63.6416 44.7237C62.9248 43.7792 62.5664 42.5789 62.5664 41.1228H72.3332C72.6319 38.919 72.2834 37.0496 71.2878 35.5148C70.3121 33.98 68.8187 33.2126 66.8076 33.2126C64.8164 33.2126 63.2135 33.8816 61.9989 35.2196C60.8042 36.5577 60.2068 38.3483 60.2068 40.5915C60.2068 42.8347 60.8042 44.6352 61.9989 45.9929C63.1936 47.331 64.7467 48 66.6583 48C68.2114 48 69.5057 47.6163 70.5411 46.8489C71.5965 46.0618 72.2336 44.9599 72.4527 43.5431H70.0334ZM66.718 35.0721C67.3751 35.0721 67.9327 35.1901 68.3906 35.4263C69.6053 36.0756 70.2126 37.3841 70.2126 39.3519H62.5963C62.7157 38.1319 63.1239 37.1185 63.8208 36.3117C64.5377 35.4853 65.5034 35.0721 66.718 35.0721Z" fill="#4A3FFF"/>
<path d="M79.4313 40.7981C79.5109 37.2956 80.6758 35.5443 82.9258 35.5443C83.5431 35.5443 84.1504 35.6427 84.7478 35.8395L84.8672 33.5668C84.3495 33.3897 83.8019 33.3011 83.2245 33.3011C81.4125 33.3011 80.1481 34.285 79.4313 36.2527V33.5372H77.0717V47.6753H79.4313V40.7981Z" fill="#4A3FFF"/>
<path d="M89.2237 34.2456C88.2281 34.9343 87.7303 35.8591 87.7303 37.0201C87.7303 38.8501 88.9748 40.1291 91.4638 40.8572L94.2415 41.7722C95.1376 42.0083 95.7847 42.2838 96.183 42.5986C96.5812 42.9134 96.7803 43.3759 96.7803 43.9858C96.7803 44.5762 96.4418 45.0878 95.7648 45.5207C95.0878 45.9536 94.2316 46.17 93.1962 46.17C92.1607 46.17 91.2946 45.9536 90.5977 45.5207C89.9207 45.0681 89.5622 44.3991 89.5224 43.5136H87.2525C87.3122 44.832 87.8697 45.9142 88.9251 46.7603C89.9804 47.5868 91.4539 48 93.3455 48C95.2371 48 96.7106 47.5966 97.766 46.7899C98.8213 45.9634 99.349 45.0484 99.349 44.0449C99.349 43.0217 99.0204 42.2247 98.3633 41.6541C97.7261 41.0638 96.8002 40.5817 95.5856 40.2078L92.7183 39.2633C91.8422 39.0075 91.205 38.7124 90.8067 38.3778C90.4085 38.0237 90.2094 37.6006 90.2094 37.1087C90.2094 36.597 90.4682 36.1248 90.9859 35.6919C91.5236 35.259 92.2802 35.0425 93.2559 35.0425C95.267 35.0425 96.3622 35.6821 96.5414 36.9611H98.8412C98.8014 35.8788 98.2936 34.9835 97.3179 34.2751C96.3622 33.5668 95.0281 33.2126 93.3156 33.2126C91.6032 33.2126 90.2393 33.5569 89.2237 34.2456Z" fill="#4A3FFF"/>
<path fill-rule="evenodd" clip-rule="evenodd" d="M112.502 43.5431C112.223 45.255 111.098 46.111 109.127 46.111C107.832 46.111 106.827 45.6486 106.11 44.7237C105.393 43.7792 105.035 42.5789 105.035 41.1228H114.802C115.1 38.919 114.752 37.0496 113.756 35.5148C112.781 33.98 111.287 33.2126 109.276 33.2126C107.285 33.2126 105.682 33.8816 104.467 35.2196C103.273 36.5577 102.675 38.3483 102.675 40.5915C102.675 42.8347 103.273 44.6352 104.467 45.9929C105.662 47.331 107.215 48 109.127 48C110.68 48 111.974 47.6163 113.01 46.8489C114.065 46.0618 114.702 44.9599 114.921 43.5431H112.502ZM109.186 35.0721C109.844 35.0721 110.401 35.1901 110.859 35.4263C112.074 36.0756 112.681 37.3841 112.681 39.3519H105.065C105.184 38.1319 105.592 37.1185 106.289 36.3117C107.006 35.4853 107.972 35.0721 109.186 35.0721Z" fill="#4A3FFF"/>
<path fill-rule="evenodd" clip-rule="evenodd" d="M52.5732 0.265645V8.35298C51.6175 6.71977 50.2137 5.90317 48.3619 5.90317C46.53 5.90317 45.0067 6.5722 43.7921 7.91024C42.5974 9.24829 42 11.0291 42 13.2526C42 15.4565 42.6073 17.2471 43.8219 18.6245C45.0565 20.0019 46.5797 20.6906 48.3917 20.6906C49.2878 20.6906 50.1141 20.4643 50.8708 20.0117C51.6274 19.5592 52.2347 18.8901 52.6927 18.0047L52.9914 20.3659H54.9029V0.265645H52.5732ZM45.5842 9.41555C46.3806 8.45137 47.3563 7.96927 48.5112 7.96927C49.6661 7.96927 50.6318 8.35298 51.4084 9.12039C52.185 9.88781 52.5732 10.9307 52.5732 12.2491V14.5513C52.5334 15.791 52.1153 16.7847 51.3188 17.5324C50.5422 18.2605 49.5964 18.6245 48.4813 18.6245C47.3663 18.6245 46.4105 18.1424 45.614 17.1782C44.8175 16.1944 44.4193 14.8957 44.4193 13.2821C44.4193 11.6686 44.8076 10.3797 45.5842 9.41555Z" fill="#4A3FFF"/>
<path d="M63.4676 6.22784H61.108V20.3659H63.4676V6.22784Z" fill="#4A3FFF"/>
<path d="M61.1379 2.53836C61.4166 2.79417 61.795 2.92207 62.2728 2.92207C62.7507 2.92207 63.1291 2.79417 63.4078 2.53836C63.7065 2.26288 63.8558 1.90869 63.8558 1.47579C63.8558 1.02322 63.7065 0.669027 63.4078 0.413221C63.1291 0.137742 62.7507 0 62.2728 0C61.795 0 61.4166 0.137742 61.1379 0.413221C60.879 0.669027 60.7496 1.02322 60.7496 1.47579C60.7496 1.90869 60.879 2.26288 61.1379 2.53836Z" fill="#4A3FFF"/>
<path fill-rule="evenodd" clip-rule="evenodd" d="M68.6893 17.2963C68.6893 18.4769 69.2867 19.3526 70.4814 19.9232C69.6451 20.1396 68.9681 20.5135 68.4504 21.0448C67.9526 21.5761 67.7037 22.2648 67.7037 23.1109C67.7037 24.4096 68.3707 25.482 69.7048 26.3281C71.0389 27.1939 72.8708 27.6268 75.2005 27.6268C77.5302 27.6268 79.4517 27.066 80.965 25.9444C82.4982 24.8228 83.2649 23.5143 83.2649 22.0188C83.2649 21.0153 82.8766 20.238 82.1 19.6871C81.3234 19.1164 80.2681 18.8311 78.934 18.8311H73.3786C71.6263 18.8311 70.7502 18.3097 70.7502 17.2668C70.7502 16.7748 70.9095 16.3911 71.2281 16.1156C71.5467 15.8205 71.9051 15.6336 72.3033 15.5548C73.1795 16.0074 74.185 16.2337 75.32 16.2337C76.9727 16.2337 78.3466 15.7516 79.4418 14.7874C80.5568 13.8036 81.1144 12.5541 81.1144 11.0389C81.1144 9.85829 80.7659 8.84491 80.069 7.99879C80.1486 6.54268 81.0646 5.81462 82.8168 5.81462L83.0259 3.51238C81.871 3.51238 80.9352 3.82722 80.2183 4.45689C79.5214 5.08656 79.1033 5.92284 78.9639 6.96574C77.9085 6.25736 76.6242 5.90317 75.1109 5.90317C73.5976 5.90317 72.2834 6.37542 71.1684 7.31993C70.0732 8.26443 69.5256 9.5041 69.5256 11.0389C69.5256 12.5737 70.0632 13.8134 71.1385 14.7579C70.4416 14.9153 69.8542 15.2302 69.3763 15.7024C68.9183 16.155 68.6893 16.6863 68.6893 17.2963ZM71.258 24.9409C70.4416 24.4096 70.0334 23.7701 70.0334 23.0224C70.0334 22.2746 70.3022 21.6745 70.8398 21.2219C71.3774 20.789 72.154 20.5529 73.1695 20.5135H78.934C79.611 20.5135 80.1088 20.6709 80.4274 20.9858C80.7659 21.3203 80.9352 21.7138 80.9352 22.1664C80.9352 23.1306 80.3677 23.9669 79.2327 24.6752C78.1176 25.4033 76.7138 25.7673 75.0213 25.7673C73.3487 25.7673 72.0943 25.4918 71.258 24.9409ZM77.8886 8.55959C78.5059 9.18927 78.8145 10.0157 78.8145 11.0389C78.8145 12.0425 78.5059 12.8787 77.8886 13.5478C77.2714 14.2168 76.4251 14.5513 75.3499 14.5513C74.2746 14.5513 73.4184 14.2266 72.7812 13.5773C72.1639 12.9083 71.8553 12.0621 71.8553 11.0389C71.8553 10.0157 72.1639 9.18927 72.7812 8.55959C73.3985 7.91024 74.2447 7.58557 75.32 7.58557C76.4151 7.58557 77.2714 7.91024 77.8886 8.55959Z" fill="#4A3FFF"/>
<path d="M89.2811 6.22784H86.9216V20.3659H89.2811V6.22784Z" fill="#4A3FFF"/>
<path d="M86.9514 2.53836C87.2302 2.79417 87.6085 2.92207 88.0864 2.92207C88.5643 2.92207 88.9426 2.79417 89.2214 2.53836C89.5201 2.26288 89.6694 1.90869 89.6694 1.47579C89.6694 1.02322 89.5201 0.669027 89.2214 0.413221C88.9426 0.137742 88.5643 0 88.0864 0C87.6085 0 87.2302 0.137742 86.9514 0.413221C86.6926 0.669027 86.5632 1.02322 86.5632 1.47579C86.5632 1.90869 86.6926 2.26288 86.9514 2.53836Z" fill="#4A3FFF"/>
<path d="M98.4753 20.4545C99.8891 20.9071 101.452 20.7398 103.165 19.9527L102.836 18.2998C101.92 18.654 101.094 18.8311 100.357 18.8311C99.003 18.8311 98.326 18.1129 98.326 16.6764V8.02831H102.806V6.25736H98.326V2.33175H95.9963V6.25736H93.6965V8.02831H95.9963V16.706C95.9963 17.3947 96.1058 17.985 96.3248 18.4769C96.743 19.4805 97.4598 20.1396 98.4753 20.4545Z" fill="#4A3FFF"/>
<path fill-rule="evenodd" clip-rule="evenodd" d="M114.962 8.47105C115.499 9.02201 115.768 9.937 115.768 11.216V13.0165C114.374 12.5049 112.911 12.2491 111.378 12.2491C109.844 12.2491 108.56 12.6033 107.525 13.3116C106.509 14.02 106.001 15.0039 106.001 16.2632C106.001 17.5226 106.459 18.5753 107.375 19.4214C108.311 20.2675 109.546 20.6906 111.079 20.6906C113.369 20.6906 114.952 19.7953 115.828 18.0047L116.067 20.3659H118.098V11.275C118.098 9.46475 117.6 8.11686 116.604 7.23138C115.609 6.3459 114.225 5.90317 112.453 5.90317C111.617 5.90317 110.84 5.98188 110.123 6.1393C107.774 6.6509 106.599 7.98895 106.599 10.1535H109.197C109.197 9.28765 109.506 8.65798 110.123 8.26443C110.76 7.85121 111.587 7.6446 112.602 7.6446C113.638 7.6446 114.424 7.92008 114.962 8.47105ZM112.065 13.902C113.12 13.902 114.354 14.0987 115.768 14.4923C115.768 15.791 115.35 16.8535 114.514 17.68C113.697 18.4868 112.712 18.8901 111.557 18.8901C109.526 18.8901 108.51 18.0047 108.51 16.2337C108.51 15.4269 108.839 14.8366 109.496 14.4628C110.153 14.0889 111.009 13.902 112.065 13.902Z" fill="#4A3FFF"/>
<path d="M126 0.265645H123.64V20.3659H126V0.265645Z" fill="#4A3FFF"/>
<defs>
<linearGradient id="paint0_linear_272_758" x1="0" y1="0.995117" x2="36.783" y2="3.28438" gradientUnits="userSpaceOnUse">
<stop stop-color="#3F34EC"/>
<stop offset="1" stop-color="#13D8D4"/>
</linearGradient>
<linearGradient id="paint1_linear_272_758" x1="0" y1="0.995117" x2="36.783" y2="3.28438" gradientUnits="userSpaceOnUse">
<stop stop-color="#3F34EC"/>
<stop offset="1" stop-color="#13D8D4"/>
</linearGradient>
<linearGradient id="paint2_linear_272_758" x1="0" y1="0.995117" x2="36.783" y2="3.28438" gradientUnits="userSpaceOnUse">
<stop stop-color="#3F34EC"/>
<stop offset="1" stop-color="#13D8D4"/>
</linearGradient>
</defs>
</svg>

<svg width="126" height="48" fill="none" xmlns="http://www.w3.org/2000/svg"><path fill-rule="evenodd" clip-rule="evenodd" d="M14.778 3.899c-2.947.855-5.377 2.504-6.65 4.454l-.001.002-.002.002c-1.56 2.366-3.685 5.626-2.85 10.695a4.49 4.49 0 01-.35 2.654l-.002.004-2.501 5.313.583.28a4.201 4.201 0 012.252 2.738l.002.007 1.104 4.643c.307 1.283 1.482 2.183 2.843 2.183h2.85a4.8 4.8 0 011.64.28 4.817 4.817 0 012.63 2.256l.003.007 2.447 4.736-2.13 1.017-2.44-4.722a2.468 2.468 0 00-1.342-1.152h-.001l-.002-.001a2.34 2.34 0 00-.804-.135H9.206c-2.474 0-4.605-1.64-5.16-3.955l-1.101-4.631a1.897 1.897 0 00-1.005-1.226l-.71-.342a2.098 2.098 0 01-1.048-2.768l.004-.01 2.567-5.453c.193-.419.257-.883.176-1.352v-.004l-.001-.005c-.983-5.951 1.58-9.84 3.184-12.273l.003-.006c1.65-2.525 4.623-4.452 7.976-5.425 3.37-.978 7.25-1.032 10.796.336 4.611 1.776 7.452 5.116 8.437 6.704.023.036.064.089.166.213.44.516.498 1.14.508 1.505a7.211 7.211 0 01-.014.63c-.007.14-.012.243-.012.338v4.707c0 1.706-1.433 3.128-3.25 3.128H16.154c-.477 0-.872.372-.872.841v1.454c0 .463.39.84.872.84h14.568c1.776 0 3.25 1.382 3.25 3.128v2.33c0 1.706-1.433 3.128-3.25 3.128h-17.18v-2.286h17.18c.483 0 .872-.378.872-.841v-2.33c0-.47-.395-.842-.872-.842H16.154c-1.817 0-3.25-1.422-3.25-3.127v-1.454c0-1.746 1.475-3.127 3.25-3.127h14.568c.483 0 .872-.378.872-.842v-4.707a14.96 14.96 0 01.018-.513c.008-.158.012-.282.01-.393a1.123 1.123 0 00-.016-.173 4.038 4.038 0 01-.322-.433l-.002-.002c-.789-1.274-3.267-4.208-7.28-5.754-2.971-1.147-6.29-1.12-9.224-.27z" fill="url(#paint0_linear_272_758)"/><path d="M14.336 32.52c1.313 0 2.377-1.023 2.377-2.286 0-1.262-1.064-2.286-2.377-2.286-1.313 0-2.378 1.024-2.378 2.287 0 1.262 1.065 2.286 2.378 2.286z" fill="url(#paint1_linear_272_758)"/><path d="M17.998 48.001c1.313 0 2.378-1.023 2.378-2.286 0-1.263-1.065-2.286-2.378-2.286-1.313 0-2.378 1.023-2.378 2.286 0 1.263 1.065 2.286 2.378 2.286z" fill="url(#paint2_linear_272_758)"/><path d="M51.189 45.225l-4.301-11.658H44.23l5.675 14.108h2.598l5.675-14.108H55.52l-4.331 11.658z" fill="#4A3FFF"/><path fill-rule="evenodd" clip-rule="evenodd" d="M70.033 43.543c-.278 1.712-1.403 2.568-3.375 2.568-1.294 0-2.3-.462-3.016-1.387-.717-.945-1.076-2.145-1.076-3.601h9.767c.299-2.204-.05-4.073-1.045-5.608-.976-1.535-2.47-2.302-4.48-2.302-1.992 0-3.595.669-4.81 2.007-1.194 1.338-1.791 3.128-1.791 5.372 0 2.243.597 4.043 1.792 5.4C63.194 47.332 64.747 48 66.659 48c1.552 0 2.847-.384 3.882-1.151 1.056-.787 1.693-1.89 1.912-3.306h-2.42zm-3.315-8.47c.657 0 1.215.117 1.673.353 1.214.65 1.822 1.958 1.822 3.926h-7.617c.12-1.22.528-2.233 1.225-3.04.717-.827 1.682-1.24 2.897-1.24z" fill="#4A3FFF"/><path d="M79.431 40.798c.08-3.502 1.245-5.254 3.495-5.254.617 0 1.224.099 1.822.296l.12-2.273a5.04 5.04 0 00-1.643-.266c-1.813 0-3.077.984-3.794 2.952v-2.716h-2.36v14.138h2.36v-6.877zM89.224 34.246c-.996.688-1.494 1.613-1.494 2.774 0 1.83 1.245 3.11 3.734 3.837l2.778.915c.896.236 1.543.512 1.941.827.398.314.597.777.597 1.387 0 .59-.338 1.102-1.015 1.535-.677.433-1.533.649-2.569.649-1.035 0-1.901-.216-2.598-.65-.677-.452-1.036-1.12-1.076-2.006h-2.27c.06 1.318.618 2.4 1.673 3.246 1.055.827 2.529 1.24 4.42 1.24 1.892 0 3.366-.403 4.421-1.21 1.055-.827 1.583-1.742 1.583-2.745 0-1.023-.329-1.82-.986-2.39-.637-.591-1.563-1.073-2.777-1.447l-2.868-.945c-.876-.255-1.513-.55-1.911-.885-.398-.354-.598-.777-.598-1.27 0-.511.26-.983.777-1.416.538-.433 1.294-.65 2.27-.65 2.011 0 3.106.64 3.285 1.92h2.3c-.04-1.083-.547-1.979-1.523-2.687-.956-.708-2.29-1.062-4.002-1.062-1.713 0-3.077.344-4.092 1.033z" fill="#4A3FFF"/><path fill-rule="evenodd" clip-rule="evenodd" d="M112.502 43.543c-.279 1.712-1.404 2.568-3.375 2.568-1.295 0-2.3-.462-3.017-1.387-.717-.945-1.075-2.145-1.075-3.601h9.767c.298-2.204-.05-4.073-1.046-5.608-.975-1.535-2.469-2.302-4.48-2.302-1.991 0-3.594.669-4.809 2.007-1.194 1.338-1.792 3.128-1.792 5.372 0 2.243.598 4.043 1.792 5.4 1.195 1.339 2.748 2.008 4.66 2.008 1.553 0 2.847-.384 3.883-1.151 1.055-.787 1.692-1.89 1.911-3.306h-2.419zm-3.316-8.47c.658 0 1.215.117 1.673.353 1.215.65 1.822 1.958 1.822 3.926h-7.616c.119-1.22.527-2.233 1.224-3.04.717-.827 1.683-1.24 2.897-1.24zM52.573.266v8.087c-.956-1.633-2.36-2.45-4.211-2.45-1.832 0-3.355.67-4.57 2.007C42.597 9.248 42 11.03 42 13.253c0 2.204.607 3.994 1.822 5.372 1.234 1.377 2.758 2.066 4.57 2.066.896 0 1.722-.227 2.479-.68.756-.452 1.364-1.12 1.822-2.006l.298 2.36h1.912V.266h-2.33zm-6.989 9.15c.797-.965 1.772-1.447 2.927-1.447s2.12.384 2.897 1.151c.777.768 1.165 1.81 1.165 3.13v2.301c-.04 1.24-.458 2.234-1.254 2.981-.777.729-1.723 1.093-2.838 1.093s-2.07-.483-2.867-1.447c-.796-.984-1.195-2.282-1.195-3.896 0-1.613.389-2.902 1.165-3.866z" fill="#4A3FFF"/><path d="M63.468 6.228h-2.36v14.138h2.36V6.228zM61.138 2.538c.279.256.657.384 1.135.384s.856-.128 1.135-.384c.298-.275.448-.63.448-1.062 0-.453-.15-.807-.448-1.063C63.129.138 62.75 0 62.273 0s-.856.138-1.135.413c-.259.256-.388.61-.388 1.063 0 .433.129.787.388 1.062z" fill="#4A3FFF"/><path fill-rule="evenodd" clip-rule="evenodd" d="M68.69 17.296c0 1.18.597 2.057 1.791 2.627-.836.217-1.513.59-2.03 1.122-.498.531-.747 1.22-.747 2.066 0 1.299.667 2.371 2 3.217 1.335.866 3.167 1.299 5.497 1.299s4.25-.561 5.764-1.683c1.533-1.121 2.3-2.43 2.3-3.925 0-1.004-.388-1.781-1.165-2.332-.777-.57-1.832-.856-3.166-.856h-5.555c-1.753 0-2.629-.521-2.629-1.564 0-.492.16-.876.478-1.151a2.187 2.187 0 011.075-.561c.877.452 1.882.679 3.017.679 1.653 0 3.027-.482 4.122-1.447 1.115-.983 1.672-2.233 1.672-3.748 0-1.18-.348-2.194-1.045-3.04.08-1.456.996-2.184 2.748-2.184l.209-2.303c-1.155 0-2.09.315-2.808.945-.697.63-1.115 1.466-1.254 2.509-1.055-.709-2.34-1.063-3.853-1.063-1.513 0-2.828.472-3.943 1.417-1.095.944-1.642 2.184-1.642 3.719 0 1.535.537 2.774 1.612 3.719a3.569 3.569 0 00-1.762.944c-.458.453-.687.984-.687 1.594zm2.568 7.645c-.816-.531-1.225-1.17-1.225-1.919 0-.747.27-1.348.807-1.8.537-.433 1.314-.67 2.33-.709h5.764c.677 0 1.175.158 1.493.473.339.334.508.728.508 1.18 0 .965-.567 1.8-1.702 2.51-1.115.727-2.52 1.091-4.212 1.091-1.672 0-2.927-.275-3.763-.826zm6.63-16.381c.618.63.926 1.456.926 2.479 0 1.004-.308 1.84-.925 2.509-.618.669-1.464 1.003-2.54 1.003-1.074 0-1.93-.324-2.568-.974-.617-.669-.926-1.515-.926-2.538s.309-1.85.926-2.48c.617-.649 1.464-.973 2.539-.973 1.095 0 1.951.324 2.569.974z" fill="#4A3FFF"/><path d="M89.281 6.228h-2.36v14.138h2.36V6.228zM86.951 2.538c.28.256.658.384 1.135.384.478 0 .857-.128 1.135-.384.3-.275.448-.63.448-1.062 0-.453-.149-.807-.448-1.063C88.943.138 88.564 0 88.086 0c-.477 0-.856.138-1.135.413-.258.256-.388.61-.388 1.063 0 .433.13.787.388 1.062zM98.475 20.454c1.414.453 2.977.286 4.69-.501l-.329-1.653c-.916.354-1.742.531-2.479.531-1.354 0-2.031-.718-2.031-2.155V8.028h4.48v-1.77h-4.48V2.331h-2.33v3.925h-2.3v1.771h2.3v8.678c0 .689.11 1.279.329 1.77.418 1.005 1.135 1.664 2.15 1.979z" fill="#4A3FFF"/><path fill-rule="evenodd" clip-rule="evenodd" d="M114.962 8.471c.537.551.806 1.466.806 2.745v1.8a12.64 12.64 0 00-4.39-.767c-1.534 0-2.818.354-3.853 1.063-1.016.708-1.524 1.692-1.524 2.951 0 1.26.458 2.312 1.374 3.158.936.846 2.171 1.27 3.704 1.27 2.29 0 3.873-.896 4.749-2.686l.239 2.36h2.031v-9.09c0-1.81-.498-3.158-1.494-4.044-.995-.885-2.379-1.328-4.151-1.328-.836 0-1.613.079-2.33.236-2.349.512-3.524 1.85-3.524 4.014h2.598c0-.865.309-1.495.926-1.889.637-.413 1.464-.62 2.479-.62 1.036 0 1.822.276 2.36.827zm-2.897 5.431c1.055 0 2.289.197 3.703.59 0 1.299-.418 2.361-1.254 3.188-.817.807-1.802 1.21-2.957 1.21-2.031 0-3.047-.885-3.047-2.656 0-.807.329-1.397.986-1.771.657-.374 1.513-.561 2.569-.561z" fill="#4A3FFF"/><path d="M126 .266h-2.36v20.1H126V.266z" fill="#4A3FFF"/><defs><linearGradient id="paint0_linear_272_758" x1="0" y1=".995" x2="36.783" y2="3.284" gradientUnits="userSpaceOnUse"><stop stop-color="#3F34EC"/><stop offset="1" stop-color="#13D8D4"/></linearGradient><linearGradient id="paint1_linear_272_758" x1="0" y1=".995" x2="36.783" y2="3.284" gradientUnits="userSpaceOnUse"><stop stop-color="#3F34EC"/><stop offset="1" stop-color="#13D8D4"/></linearGradient><linearGradient id="paint2_linear_272_758" x1="0" y1=".995" x2="36.783" y2="3.284" gradientUnits="userSpaceOnUse"><stop stop-color="#3F34EC"/><stop offset="1" stop-color="#13D8D4"/></linearGradient></defs></svg>
